src/images/icons/twitter.svg

<svg width="16" height="14" viewBox="0 0 16 14" fill="none" xmlns="http://www.w3.org/2000/svg">
<path d="M14.3193 3.72842C14.329 3.86842 14.329 4.00842 14.329 4.14971C14.329 8.45487 11.0515 13.42 5.05865 13.42V13.4175C3.28832 13.42 1.55478 12.9129 0.0644531 11.9568C0.321872 11.9878 0.580582 12.0033 0.839937 12.0039C2.30703 12.0052 3.73219 11.5129 4.88639 10.6065C3.49219 10.58 2.26961 9.671 1.84252 8.3439C2.3309 8.4381 2.83413 8.41874 3.31349 8.28777C1.79349 7.98068 0.699937 6.64519 0.699937 5.09422C0.699937 5.08003 0.699937 5.06648 0.699937 5.05293C1.15284 5.30519 1.65994 5.44519 2.17865 5.46068C0.747034 4.5039 0.305743 2.59939 1.17026 1.11035C2.82445 3.14584 5.2651 4.38326 7.8851 4.51423C7.62252 3.38261 7.98123 2.19681 8.82768 1.40132C10.1399 0.167773 12.2038 0.230999 13.4374 1.54261C14.167 1.39874 14.8664 1.131 15.5064 0.751644C15.2632 1.50584 14.7541 2.14648 14.0741 2.55358C14.7199 2.47745 15.3509 2.30455 15.9451 2.04068C15.5077 2.69616 14.9567 3.26713 14.3193 3.72842Z" fill="#D0D0DA"/>
</svg>

<svg xmlns="http://www.w3.org/2000/svg" width="16" height="14" fill="none"><path fill="#D0D0DA" d="M14.32 3.728c.009.14.009.28.009.422 0 4.305-3.277 9.27-9.27 9.27v-.002a9.23 9.23 0 0 1-4.995-1.461q.387.045.776.047a6.54 6.54 0 0 0 4.046-1.397 3.26 3.26 0 0 1-3.043-2.263c.488.094.991.075 1.47-.056A3.26 3.26 0 0 1 .7 5.094v-.041c.453.252.96.392 1.479.408A3.26 3.26 0 0 1 1.17 1.11a9.25 9.25 0 0 0 6.715 3.403 3.26 3.26 0 0 1 5.552-2.971 6.5 6.5 0 0 0 2.07-.791 3.27 3.27 0 0 1-1.433 1.802 6.5 6.5 0 0 0 1.871-.513 6.6 6.6 0 0 1-1.626 1.687"/></svg>
